!!!COM: Schiørring, Niels
!!!CDT: 1743-1798
!!!OPR@@DA: Choral-Bog
!!!ONM: 89
!!!OTL@@DA: Rind nu op i Jeſu Ravn
**kern	**fb	**kern	**kern	**kern	**kern	**kern	**kern	**kern
*part6	*part6	*part6	*part5	*part5	*part4	*part3	*part2	*part1
*staff8	*	*staff7	*staff6	*staff5	*staff4	*staff3	*staff2	*staff1
*clefF4	*	*clefC1	*clefF4	*clefC1	*clefF4	*clefC4	*clefC3	*clefC1
*k[b-e-a-]	*	*k[b-e-a-]	*k[b-e-a-]	*k[b-e-a-]	*k[b-e-a-]	*k[b-e-a-]	*k[b-e-a-]	*k[b-e-a-]
*E-:	*	*E-:	*E-:	*E-:	*E-:	*E-:	*E-:	*E-:
*M4/4	*	*M4/4	*M4/4	*M4/4	*M4/4	*M4/4	*M4/4	*M4/4
*met(c)	*	*met(c)	*met(c)	*met(c)	*met(c)	*met(c)	*met(c)	*met(c)
*MM180	*	*MM180	*MM180	*MM180	*MM180	*MM180	*MM180	*MM180
=1	=1	=1	=1	=1	=1	=1	=1	=1
*	*	*	*^	*^	*	*	*	*
2C	.	2c	2E-	2C	2c	2G	2C	2E-	2G	2c
2BBn	6	2d	2G	2BBn	2d	2d	2BBn	2G	2d	2d
=2	=2	=2	=2	=2	=2	=2	=2	=2	=2	=2
1C	.	2e-	2G	1C	2e-	2c	2C	2G	2c	2e-
.	.	2c	2E-	.	2c	2G	2C	2E-	2c	2c
=3	=3	=3	=3	=3	=3	=3	=3	=3	=3	=3
2BB-	6	2g	2.G	2BB-	2g	2d	2BB-	2.G	2d	2g
2AA-	7	2cc	.	2AA-	2cc	2c	2AA-	.	(4c	2cc
=4	=4	=4	=4	=4	=4	=4	=4	=4	=4	=4
1GG	n	1bn	1G	1GG	1bn	1d	1GG	1G	1d	1bn
=5	=5	=5	=5	=5	=5	=5	=5	=5	=5	=5
2C	.	2ee-	2G	2C	2ee-	2e-	2C	2G	2e-	2ee-
2D	nr6	2dd	2Bn	2D	2dd	2f	2D	2B	2f	2dd
=6	=6	=6	=6	=6	=6	=6	=6	=6	=6	=6
2E-	6	2cc	2c	2E-	2cc	2g	2E-	2c	2g	2cc
2F	.	2cc	2ryy	2F	2c	2a-	2F	2c	2a-	2cc
=7	=7	=7	=7	=7	=7	=7	=7	=7	=7	=7
2BB-	6 -	2b-	2ryy	2BB-	2d-X	2g	2BB-	2d-X	2g	2b-
2C	n	2g	2c	2C	2g	2en	2C	2c	2en	2g
=8	=8	=8	=8	=8	=8	=8	=8	=8	=8	=8
*	*	*	*	*	*	*	*^	*	*	*
1FF	.	2a-	1ryy	1FF	2c	2f	2F	2FF	2c	2f	2a-
.	.	2f	.	.	2A-	2c	2F	2FF	2A-	2c	2f
*	*	*	*	*	*	*	*v	*v	*	*	*
=9	=9	=9	=9	=9	=9	=9	=9	=9	=9	=9
1D	6	2b-	1B-	1D	2b-	2f	2D	2F	2f	2b-
.	.	2f	.	.	2f	2f	2D	2B-	2f	2f
=10	=10	=10	=10	=10	=10	=10	=10	=10	=10	=10
2E-	.	2g	2B-	2E-	2g	2e-	2E-	2B-	2e-	2g
2C	.	2g	2ryy	2C	2c	2e-	2C	2c	2e-	2g
=11	=11	=11	=11	=11	=11	=11	=11	=11	=11	=11
2AAn	6	2f	1F	2AAn	2f	2c	2AAn	2c	2f	2f
*	*	*	*	*	*	*	*^	*	*	*
2FF	7 n	2e-	.	2FF	2e-	2An	2F	2FF	2A	2c	2e-
*	*	*	*	*	*	*	*v	*v	*	*	*
=12	=12	=12	=12	=12	=12	=12	=12	=12	=12	=12
1BB-	.	2d	1F	1BB-	2d	2B-	2BB-	2B-	2B-	2d
.	.	2d	.	.	2d	2B-	2BB-	2F	2B-	2d
=13	=13	=13	=13	=13	=13	=13	=13	=13	=13	=13
2G	6	2e-	2G	2G	2e-	2B-	2G	2G	2B-	2e-
2F	nr4	2d	2G	2F	2d	2Bn	2F	2G	2Bn	2d
=14	=14	=14	=14	=14	=14	=14	=14	=14	=14	=14
2.E-	6	2c	2.G	2.E-	2c	2.c	2.E-	2.G	2.c	2c
.	.	2g	.	.	2g	.	.	.	.	2g
4D	-r6 4	.	4B-Xi	4D	.	4d	4D	4B-	4d	.
=15	=15	=15	=15	=15	=15	=15	=15	=15	=15	=15
2C#X	nr6 5	2g	1An	2C#X	2g	2en	2C#X	2A	2en	2g
2D	#	2f#X	.	2D	2f#X	2d	2D	2A	2d	2f#X
=16	=16	=16	=16	=16	=16	=16	=16	=16	=16	=16
1GG	.	1g	1ryy	1GG	1B-	1d	1GG	1B-	1d	1g
=17	=17	=17	=17	=17	=17	=17	=17	=17	=17	=17
2C	.	2g	1ryy	2C	2c	2e-	2C	2c	2e-	2g
2AA-	.	2a-	.	2AA-	2c	2e-	2AA-	2c	2e-	2a-
=18	=18	=18	=18	=18	=18	=18	=18	=18	=18	=18
2GG	6	2b-	1ryy	2GG	2B-	2e-	2GG	2B-	2e-	2b-
2E-	8	2b-	.	2E-	4e-	2g	2E-	(4e-	2g	2b-
=19	=19	=19	=19	=19	=19	=19	=19	=19	=19	=19
2A-	-7	2cc	1ryy	2A-	4c	4e-	2A-	(4c	(4e-	2cc
.	.	.	.	.	4e-	2a-	.	4e-)	2a-)	.
2BBn	7 5	2dd	.	2BBn	2f	.	2BBn	2f	.	2dd
=20	=20	=20	=20	=20	=20	=20	=20	=20	=20	=20
1C	6	2ee-	1ryy	1C	2e-	2g	2C	2e-	2g	2ee-
.	.	2ee-	.	.	2g	2cc	2C	2c	2g	2ee-
=21	=21	=21	=21	=21	=21	=21	=21	=21	=21	=21
2D	6	2b-	1B-	2D	2b-	2f	2D	2f	2f	2b-
2BB-	7	2a-	.	2BB-	2a-	2d	2BB-	2f	2d	2a-
=22	=22	=22	=22	=22	=22	=22	=22	=22	=22	=22
2E-	.	2g	2B-	2E-	2g	2e-	2E-	2B-	2e-	2g
2C	.	2g	2ryy	2C	2c	[2e-	2C	2c	[2e-	2g
=23	=23	=23	=23	=23	=23	=23	=23	=23	=23	=23
2AAn	6 5	2f	2ryy	2AAn	2c	2e-]	2AAn	2c	2e-]	2f
2BB-	8	2f	4B-	2BB-	2f	2d	2BB-	(4B-	2d	2f
=24	=24	=24	=24	=24	=24	=24	=24	=24	=24	=24
1E-	-7	1e-	1G	1E-	1e-	1B-	1E-	1G	1e-	1e-
=25	=25	=25	=25	=25	=25	=25	=25	=25	=25	=25
2En	5	2b-	1c	2En	2b-	2g	2En	2c	2g	2b-
[2F	.	2a-	.	[2F	2a-	2f	[2F	2c	2f	2a-
=26	=26	=26	=26	=26	=26	=26	=26	=26	=26	=26
2F]	nr4	2g	2Bn	2F]	2g	2d	2F]	2B	2d	2g
2E-Xi	6	2cc	2c	2E-Xi	2cc	2g	2E-Xi	2c	2g	2cc
=27	=27	=27	=27	=27	=27	=27	=27	=27	=27	=27
2D	nr6	2bn	2d	2D	2bn	2f	2D	2d	2f	2bn
2C	.	2cc	2ryy	2C	2e-	2g	2C	2G	2e-	2cc
=28	=28	=28	=28	=28	=28	=28	=28	=28	=28	=28
*	*	*	*	*	*	*^	*	*	*	*
1GG	n	2dd	1ryy	1GG	2d	2bn	2g/	2GG	2B	2d	2dd
*	*	*	*	*	*	*v	*v	*	*	*	*
.	.	2dd	.	.	2g	2b	2GG	2B	2g	2dd
=29	=29	=29	=29	=29	=29	=29	=29	=29	=29	=29
*	*	*	*	*	*	*^	*	*	*	*
2C	.	2ee-	2c	2C	2ee-	2cc	2g\	2C	2c	2g	2ee-
*	*	*	*	*	*	*v	*v	*	*	*	*
2A-	6	2cc	2c	2A-	2cc	2f#X	2A-	2c	2f#X	2cc
=30	=30	=30	=30	=30	=30	=30	=30	=30	=30	=30
2G	n	2bn	2d	2G	2bn	2g	2G	2d	2g	2bn
2F#X	7 5	2cc	2e-	2F#X	2cc	2an	2F#X	2e-	2an	2cc
=31	=31	=31	=31	=31	=31	=31	=31	=31	=31	=31
1G	6 4	2cc	2e-	1G	2cc	1g	2G	2e-	2g	2cc
.	5 n	2bn	2d	.	2bn	.	2G	2d	2g	2bn
=32	=32	=32	=32	=32	=32	=32	=32	=32	=32	=32
*	*	*	*	*	*	*^	*	*	*	*
1C	.	1cc	1c	1C	1cc	1g	1e-\	1C	1e-	1g	1cc
*	*	*	*v	*v	*	*	*	*	*	*	*
*	*	*	*	*v	*v	*v	*	*	*	*
==	==	==	==	==	==	==	==	==
*-	*-	*-	*-	*-	*-	*-	*-	*-
!!!system-decoration: {(s1,s2,s3,s4)}{(s5,s6)}{(s7,s8)}
!!!RDF**kern: i = editorial accidental
!!!RDF**kern: > = above
!!!RDF**kern: < = below
!!!AGN: chorale
!!!EED: Derek Remeš
!!!EED2: Victor Phan
!!!END: 2023/11/28
!!!ENC: Wolfgang Drescher
!!!EEV: 2023/11/29
!!!title: @{ONM}. @{OTL}